assets/img/braze_icons/bell-03.svg

<svg fill="none" height="24" viewBox="0 0 24 24" width="24" xmlns="http://www.w3.org/2000/svg"><path clip-rule="evenodd" d="m8.71932 5.72148c-.14173-.38041-.21932-.7921-.21932-1.22148 0-1.933 1.567-3.5 3.5-3.5s3.5 1.567 3.5 3.5c0 .42938-.0776.84106-.2193 1.22147.5859.27478 1.1314.62511 1.6169 1.04589 1.3246 1.14801 2.1024 2.73835 2.1024 4.43264 0 2.1077.5203 3.5999 1.1327 4.6357l.0103.0173c.3937.6659.7013 1.1861.9076 1.5595.1031.1866.1938.3596.2598.5078.0327.0734.0688.1616.0969.2553.021.0698.0726.2509.0511.4703-.0118.1205-.0388.3598-.1781.6041-.1394.2442-.3316.3893-.4293.4608-.1593.1164-.3186.1664-.398.1883-.0936.026-.1847.0413-.2601.0514-.1509.0202-.3266.0305-.5097.0368-.365.0127-.8754.0127-1.5186.0127h-2.2906c-.4441 1.7252-2.0102 3-3.874 3s-3.42994-1.2748-3.87398-3h-2.29052c-.64313 0-1.15365 0-1.51869-.0127-.18311-.0063-.35879-.0166-.50967-.0368-.07546-.0101-.16648-.0254-.26014-.0514-.07936-.0219-.23871-.0719-.39796-.1883-.09772-.0715-.28995-.2166-.42928-.4608-.13934-.2443-.16636-.4836-.17814-.6041-.02145-.2194.03013-.4005.05109-.4703.02812-.0937.0642-.1819.09692-.2553.06596-.1482.1567-.3212.25981-.5078.20629-.3734.51384-.8935.90763-1.5595l.01022-.0173c.61246-1.0358 1.13272-2.528 1.13272-4.6357 0-1.69429.77779-3.28463 2.10243-4.43264.48551-.42078 1.03098-.7711 1.61688-1.04588zm1.78068-1.22148c0-.82843.6716-1.5 1.5-1.5s1.5.67157 1.5 1.5c0 .22108-.0474.43048-.133.61911-.4481-.07884-.9059-.11911-1.367-.11911s-.9189.04027-1.367.11912c-.0856-.18864-.133-.39803-.133-.61912zm1.5 16.5c.7403 0 1.3866-.4022 1.7324-1h-3.4648c.3458.5978.9921 1 1.7324 1z" fill="#801ed7" fill-rule="evenodd"/></svg>

<svg width="24" height="24" viewBox="0 0 24 24" fill="none" xmlns="http://www.w3.org/2000/svg">
<path fill-rule="evenodd" clip-rule="evenodd" d="M8.71932 5.72148C8.57759 5.34107 8.5 4.92938 8.5 4.5C8.5 2.567 10.067 1 12 1C13.933 1 15.5 2.567 15.5 4.5C15.5 4.92938 15.4224 5.34106 15.2807 5.72147C15.8666 5.99625 16.4121 6.34658 16.8976 6.76736C18.2222 7.91537 19 9.50571 19 11.2C19 13.3077 19.5203 14.7999 20.1327 15.8357L20.143 15.853C20.5367 16.5189 20.8443 17.0391 21.0506 17.4125C21.1537 17.5991 21.2444 17.7721 21.3104 17.9203C21.3431 17.9937 21.3792 18.0819 21.4073 18.1756C21.4283 18.2454 21.4799 18.4265 21.4584 18.6459C21.4466 18.7664 21.4196 19.0057 21.2803 19.25C21.1409 19.4942 20.9487 19.6393 20.851 19.7108C20.6917 19.8272 20.5324 19.8772 20.453 19.8991C20.3594 19.9251 20.2683 19.9404 20.1929 19.9505C20.042 19.9707 19.8663 19.981 19.6832 19.9873C19.3182 20 18.8078 20 18.1646 20H15.874C15.4299 21.7252 13.8638 23 12 23C10.1362 23 8.57006 21.7252 8.12602 20H5.8355C5.19237 20 4.68185 20 4.31681 19.9873C4.1337 19.981 3.95802 19.9707 3.80714 19.9505C3.73168 19.9404 3.64066 19.9251 3.547 19.8991C3.46764 19.8772 3.30829 19.8272 3.14904 19.7108C3.05132 19.6393 2.85909 19.4942 2.71976 19.25C2.58042 19.0057 2.5534 18.7664 2.54162 18.6459C2.52017 18.4265 2.57175 18.2454 2.59271 18.1756C2.62083 18.0819 2.65691 17.9937 2.68963 17.9203C2.75559 17.7721 2.84633 17.5991 2.94944 17.4125C3.15573 17.0391 3.46328 16.519 3.85707 15.853L3.86729 15.8357C4.47975 14.7999 5.00001 13.3077 5.00001 11.2C5.00001 9.50571 5.7778 7.91537 7.10244 6.76736C7.58795 6.34658 8.13342 5.99626 8.71932 5.72148ZM10.5 4.5C10.5 3.67157 11.1716 3 12 3C12.8284 3 13.5 3.67157 13.5 4.5C13.5 4.72108 13.4526 4.93048 13.367 5.11911C12.9189 5.04027 12.4611 5 12 5C11.5389 5 11.0811 5.04027 10.633 5.11912C10.5474 4.93048 10.5 4.72109 10.5 4.5ZM12 21C12.7403 21 13.3866 20.5978 13.7324 20H10.2676C10.6134 20.5978 11.2597 21 12 21Z" fill="#801ED7"/>
</svg>
